X: 23660
T: Limestone Rock, The
R: reel
M: 4/4
K: Gmajor
dc|B~G3 D~G3|BAGB A2 dc|B~G3 AGAB|cABG A2 dc|
B~G3 D~G3|BAGB A2 dc|B~G3 AGAB|cABG A2 Bd|
~e2 dB ~e2 dB|~e2 dB A2 Bd|e~B3 g~B3|cABG A2 Bd|
edgd eaaf|gedB A2Bc|dggf gabg|agef g2|

